X:12
T:Passant par Brisfort
R:Bourre  2 temps
O:France
C:La Chavanne de Montbel
A:
M:2/4
L:1/16
K:G
B3A c2B2|F3G A2B2|c6d2|c3B A2G2|B3A c2B2|F3G A2B2|c2A2- A2F2|G8:|:
B2A2- A2B2|G4E2A2|D3E F2D2|G3E A2G2|B3A- A2B2|G4E2c2|B3A G2F2|G8:|
%%footer $D   Galouvielle-MBe 2005 \nBourre  3 temps --
